X: 23205
T: Leading Role
R: reel
M: 4/4
K: Amajor
AB|:{B}c2BA FEcB|A2ce {e}fece|c2BA FAEB|cFAF cFAB|
{B}c2BA FEcB|A2ce {e}fece|{B}.c2BA FEcB|1 {c}BAce A2 AB:|2 {c}BAce A2 Ac||
~e2 ce ~e2 ce|{e}~f2 ec BAFA|cFAF cFAB|c2BA FEce|
~e2 ce ~e2 ce|{e}~f2 ec BAFA|{B}.c2BA FEcB|1 {c}BAce A3 c:|2 {c}BAce A2 AB||

